X: 14681
T: Gan Ainm
R: slide
M: 12/8
K: Ddorian
|:d2e f2e|d2c A2c|d2e f2g|a2g f2e|
d2e f2e|d2c A2c|d3 c3|1 d6:|2 d3 de/f/g||
|:a3 a3|g3 g3|f2g a2f|e3 e2e|
d2e f2e|d2c A2c|d3 c3|1 d3 de/f/g:|2 d6||

